X:1
T:Title
%%score { ( 1 4 ) | ( 2 3 ) }
L:1/8
M:4/4
K:F
V:1 treble nm="Grand Piano"
V:4 treble 
V:2 bass 
V:3 bass 
V:1
 z4 z2[Q:1/4=100] C2 | F2 F2 [EG]2 [EG]2 | A4 z2 A2 | B2 AG F2 G2 | [EG]4 z2 C2 | %5
 F2 F2 [EG]2 [EG]2 |[M:9/8] A2 d- d c2- c B2 |[M:4/4] A2 F2 [DG]2 AB | [^CA]4 z2 A2 | A2 c2 B2 A2 | %10
[M:9/8] [CDA]2 [B,DG]- [B,DG] [G,D]2- [G,D] [G,DG]2 |[M:4/4] F2 EF [B,EG]3 [A,CF] | %12
[M:3/4] [A,CF]4 z2 |] %13
V:2
 z4 z2 [F,A,]2 | [F,A,C]2 [F,A,C]2 [C,C]2 [C,C]2 | [F,CF]4 z2[K:treble] [F,CF]2 | %3
 [F,DF]2 C-[G,CE] [A,C]2 [G,=B,F]2 | [C,C]4 z2 [E,B,]2 | [F,A,C]2 [F,A,C]2 [C,C]2 [C,C]2 | %6
[M:9/8][K:treble] [F,CF]2 [B,F]- [B,F] [A,CF]2- [A,CF][K:bass] [F,CE]2 | %7
[M:4/4] [F,CF]2 [B,,A,]2 [B,,F,]2 [A,,F,][G,,E,] | [A,,E,]4 z2 [F,C]2 | %9
 [F,C]2 [F,A,F]2 [F,DF]2 [F,CF]2 |[M:9/8] B,,2 B,,- B,, B,,2- B,, =B,,2 |[M:4/4] z2 .G,2 z4 | %12
[M:3/4] F,4 z2 |] %13
V:3
 x8 | x8 | x6[K:treble] x2 | z2 .[F,F]2 z4 | x8 | x8 |[M:9/8][K:treble] x7[K:bass] x2 |[M:4/4] x8 | %8
 x8 | x8 |[M:9/8] x9 |[M:4/4] [C,A,C]2 [C,C]-[C,A,C] C,3 F, |[M:3/4] x6 |] %13
V:4
 x8 | x8 | x8 | x8 | x8 | x8 |[M:9/8] x9 |[M:4/4] z4 z2 D2 | x8 | x8 |[M:9/8] x9 |[M:4/4] x8 | %12
[M:3/4] x6 |] %13

